X:1
T:Over There
T:Over There
T:Paul Rader
T:Paul Rader, 1918
T:Public Domain Courtesy of the Cyber Hymnal™
T:Public Domain Courtesy of the Cyber Hymnal™
C:Paul Rader
Z:Public Domain
Z:Courtesy of the Cyber Hymnal™
%%score ( 1 2 ) ( 3 4 )
L:1/8
Q:1/4=105
M:4/4
K:G
V:1 treble 
V:2 treble 
V:3 bass 
V:4 bass 
V:1
 [GB]>[DA] | [DG]2 [DG][DA] [GB]2 [Gd][Gc] | [GB]4 [FA]2 [Ac][GB] | %3
w: 1.~O- ver|there where the hea- then are|dy- ing, O- ver|
w: 2.~O- ver|there where temp- ta- tion is|call- ing, O- ver|
w: 3.~O- ver|there they are call- ing and|dy- ing, O- ver|
 [FA]2 [DF][DG] [FA]2 [Fd][Ac] [GB]6 [GB][Gc] | [Gd]2 [Gd][Dd] [Dc]2 [Dc]2 | %5
w: there where the sin forc- es dwell, We must|car- ry the great sal-|
w: there where the vic- es a- bound, We must|tell of the One who|
w: there in the dark- ness they roam, They are|wait- ing to hear of|
 (A2 c2) [Ge]2 [Ge][Ge] | [Gd]2 [Fc][GB] [FA]2 [GB][DA] | [DG]6 ||"^Refrain" [DG][DA] | %9
w: va- * tion, We must|go and the glad sto- ry|tell.||
w: con- * quers, We must|tell of the Christ we have|found.|O- ver|
w: Je- * sus, They are|call- ing to us, “Won’t you|come?”||
 [GB]2 [GB][GB] [GB]2 [Gc][GB] | [GB][FA][FA][^E^G] [FA]2 [DF][D=G] | [FA]2 [FA][FA] [FA]2 [GB]2 | %12
w: |||
w: there where the mil- lions are|dy- ing, o- ver there, O- ver|there where God’s thoughts are|
w: |||
 [DA][DG][DG][DF] [DG]2 [DG][DA] | [GB]2 [GB][GB] [GB]2 [=Fd]2 | [=Fd][Ec][Ec][Ec] [CE]2 [Ec][Ec] | %15
w: |||
w: turn- ing, o- ver there; O- ver|there dark- ened hearts are|yearn- ing, o- ver there, We will|
w: |||
"^riten." [DB]2 [DG][Dc] [DB]2 [DA][DA] | [DG]6 |] %17
w: ||
w: pray for the souls o- ver|there.|
w: ||
V:2
 x2 | x8 | x8 | x16 | x8 | E4 x4 | x8 | x6 || x2 | x8 | x8 | x8 | x8 | x8 | x8 | x8 | x6 |] %17
V:3
 [G,D]>[G,C] | [G,B,]2 [G,B,][G,C] [G,D]2 [B,,D][C,E] | [D,D]4 [D,D]2 [D,D][D,D] | %3
 [D,D]2 [D,A,][D,B,] [D,D]2 [D,A,][D,D] [G,D]6 [G,D][G,A,] | [G,B,]2 [G,B,][G,B,] [F,A,]2 G,2 | %5
 [C,G,]4 [C,C]2 [^C,^A,][C,A,] | [D,B,]2 [D,A,][D,D] [D,C]2 [D,D][D,C] | [G,B,]6 || [G,B,][G,C] | %9
 [G,D]2 [G,D][G,D] [G,D]2 [G,E][G,D] | [D,D][D,D][D,D][D,D] [D,D]2 [D,A,][D,B,] | %11
 [D,C]2 [D,C][D,C] [D,C]2 [D,D]2 | [G,C][G,B,][G,B,][G,A,] [G,B,]2 [G,B,][G,C] | %13
 [G,D]2 [G,D][G,D] [G,D]2 [B,,G,]2 | [C,G,][C,G,][C,G,][C,G,] [C,G,]2 [C,G,][C,G,] | %15
 [D,G,]2 [D,B,][D,A,] [D,G,]2 [D,C][D,C] | [G,,B,]6 |] %17
V:4
 x2 | x8 | x8 | x16 | x6 G,2 | x8 | x8 | x6 || x2 | x8 | x8 | x8 | x8 | x8 | x8 | x8 | x6 |] %17

